static/img/icons/settings.svg

<?xml version="1.0" encoding="UTF-8"?>
<!-- Created with Inkscape (http://www.inkscape.org/) -->
<svg width="7.214mm" height="7.214mm" version="1.1" viewBox="0 0 7.214 7.214" xmlns="http://www.w3.org/2000/svg">
 <g transform="translate(-121.85 -36.189)" clip-rule="evenodd" fill="#0047ad" fill-rule="evenodd">
  <g transform="matrix(.24164 0 0 .24164 90.309 36.183)">
   <path d="m15 2.5c-4.1421 0-7.5 3.3579-7.5 7.5 0 4.1421 3.3579 7.5 7.5 7.5s7.5-3.3579 7.5-7.5c0-4.1421-3.3579-7.5-7.5-7.5zm-10 7.5c0-5.5228 4.4772-10 10-10 5.5228 0 10 4.4772 10 10 0 5.5228-4.4772 10-10 10-5.5228 0-10-4.4772-10-10z"/>
   <path d="m19.573 16.111c0.6844-0.0908 1.3128 0.3903 1.4036 1.0747l1.5125 11.4c0.0631 0.4758-0.1518 0.9457-0.5529 1.2092-0.4012 0.2635-0.9178 0.274-1.3294 0.0271l-5.6069-3.3642-5.6068 3.3642c-0.41159 0.2469-0.92824 0.2364-1.3294-0.0272-0.40117-0.2635-0.61602-0.7335-0.55282-1.2093l1.5125-11.388c0.0909-0.6843 0.71936-1.1654 1.4037-1.0745 0.6844 0.0909 1.1654 0.7193 1.0745 1.4037l-1.171 8.8168 4.0263-2.4158c0.3959-0.2375 0.8904-0.2375 1.2863 0l4.0267 2.4161-1.1715-8.8298c-0.0908-0.6844 0.3904-1.3127 1.0747-1.4035z"/>
  </g>
  <g transform="matrix(.26344 0 0 .26344 97.029 35.861)">
   <path d="m8.125 22.5c-0.49728 0-0.97419 0.1975-1.3258 0.5492-0.35163 0.3516-0.54917 0.8285-0.54917 1.3258 0 0.6904-0.55964 1.25-1.25 1.25s-1.25-0.5596-1.25-1.25c0-1.1603 0.46094-2.2731 1.2814-3.0936s1.9333-1.2814 3.0936-1.2814h16.875c0.6904 0 1.25 0.5596 1.25 1.25s-0.5596 1.25-1.25 1.25z"/>
   <path d="m8.125 3.75c-0.49728 0-0.97419 0.19754-1.3258 0.54917-0.35163 0.35164-0.54917 0.82855-0.54917 1.3258v18.75c0 0.4973 0.19754 0.9742 0.54917 1.3258 0.35164 0.3517 0.82855 0.5492 1.3258 0.5492h15.625v-22.5zm0-2.5h16.875c0.6904 0 1.25 0.55964 1.25 1.25v25c0 0.6904-0.5596 1.25-1.25 1.25h-16.875c-1.1603 0-2.2731-0.4609-3.0936-1.2814s-1.2814-1.9333-1.2814-3.0936v-18.75c0-1.1603 0.46094-2.2731 1.2814-3.0936s1.9333-1.2814 3.0936-1.2814z"/>
  </g>
  <g transform="matrix(.32781 0 0 .32781 104.38 35.897)">
   <path d="m1.8787 3.8787c0.56261-0.56261 1.3257-0.87868 2.1213-0.87868h7c0.5523 0 1 0.44772 1 1s-0.4477 1-1 1h-7c-0.26522 0-0.51957 0.10536-0.70711 0.29289-0.18753 0.18754-0.29289 0.44189-0.29289 0.70711v14c0 0.2652 0.10536 0.5196 0.29289 0.7071 0.18754 0.1875 0.44189 0.2929 0.70711 0.2929h14c0.2652 0 0.5196-0.1054 0.7071-0.2929s0.2929-0.4419 0.2929-0.7071v-7c0-0.5523 0.4477-1 1-1s1 0.4477 1 1v7c0 0.7957-0.3161 1.5587-0.8787 2.1213s-1.3256 0.8787-2.1213 0.8787h-14c-0.79565 0-1.5587-0.3161-2.1213-0.8787s-0.87868-1.3256-0.87868-2.1213v-14c0-0.79565 0.31607-1.5587 0.87868-2.1213z"/>
   <path d="m20 2.8787c-0.2974 0-0.5826 0.11814-0.7929 0.32843l-9.3041 9.3041-0.5286 2.1144 2.1144-0.5286 9.3041-9.3041c0.2103-0.21029 0.3284-0.49551 0.3284-0.7929s-0.1181-0.5826-0.3284-0.79289-0.4955-0.32843-0.7929-0.32843zm-2.2071-1.0858c0.5854-0.58537 1.3793-0.91422 2.2071-0.91422s1.6218 0.32885 2.2071 0.91422c0.5854 0.58536 0.9142 1.3793 0.9142 2.2071 0 0.82783-0.3288 1.6218-0.9142 2.2071l-9.5 9.5c-0.1281 0.1281-0.2887 0.2191-0.4645 0.263l-4 1c-0.34078 0.0852-0.70127-0.0146-0.94965-0.263s-0.34823-0.6089-0.26303-0.9497l1-4c0.04396-0.1758 0.13488-0.3364 0.26303-0.4645z"/>
  </g>
  <g transform="matrix(.26344 0 0 .26344 113.06 35.86)">
   <path d="m22.866 14.116c0.4882-0.4881 1.2796-0.4881 1.7678 0l3.75 3.75c0.4881 0.4882 0.4881 1.2796 0 1.7678l-8.75 8.75c-0.4882 0.4881-1.2796 0.4881-1.7678 0l-3.75-3.75c-0.4881-0.4882-0.4881-1.2796 0-1.7678zm-6.0983 9.6339 1.9822 1.9822 6.9822-6.9822-1.9822-1.9822z"/>
   <path d="m1.6161 1.6161c0.30792-0.30791 0.75389-0.43339 1.1772-0.33122l18.125 4.375c0.4732 0.11421 0.837 0.49268 0.9324 0.96996l1.8751 9.375c0.0819 0.4098-0.0464 0.8335-0.3419 1.129l-6.25 6.25c-0.2955 0.2955-0.7192 0.4238-1.129 0.3419l-9.375-1.8751c-0.47728-0.0954-0.85575-0.4592-0.96996-0.9324l-4.375-18.125c-0.10217-0.4233 0.02331-0.86927 0.33122-1.1772zm2.5789 2.5789 3.7078 15.361 7.9364 1.5873 5.3039-5.3039-1.5873-7.9364z"/>
   <path d="m1.6161 1.6161c0.48815-0.48816 1.2796-0.48816 1.7678 0l9.4825 9.4825c0.4881 0.4882 0.4881 1.2796 0 1.7678-0.4882 0.4881-1.2796 0.4881-1.7678 0l-9.4825-9.4825c-0.48816-0.48815-0.48816-1.2796 0-1.7678z"/>
   <path d="m13.75 12.5c-0.6904 0-1.25 0.5596-1.25 1.25s0.5596 1.25 1.25 1.25 1.25-0.5596 1.25-1.25-0.5596-1.25-1.25-1.25zm-3.75 1.25c0-2.0711 1.6789-3.75 3.75-3.75s3.75 1.6789 3.75 3.75-1.6789 3.75-3.75 3.75-3.75-1.6789-3.75-3.75z"/>
  </g>
  <g transform="matrix(.24047 0 0 .24047 121.85 36.189)">
   <path d="m15 12.5c-1.3807 0-2.5 1.1193-2.5 2.5s1.1193 2.5 2.5 2.5 2.5-1.1193 2.5-2.5-1.1193-2.5-2.5-2.5zm-5 2.5c0-2.7614 2.2386-5 5-5s5 2.2386 5 5-2.2386 5-5 5-5-2.2386-5-5z"/>
   <path d="m15 2.5c-0.3315 0-0.6495 0.1317-0.8839 0.36612s-0.3661 0.55236-0.3661 0.88388v0.21749c-0.0026 0.64601-0.194 1.2772-0.5507 1.8158s-0.8631 0.96117-1.4569 1.2156c-0.1057 0.0453-0.2169 0.0757-0.3304 0.09054-0.5395 0.18894-1.1203 0.23551-1.6858 0.13299-0.65125-0.11808-1.2522-0.42855-1.7253-0.89137l-0.00986-0.00964-0.07494-0.07506c-0.11609-0.11622-0.25445-0.20891-0.40619-0.27181-0.15175-0.06291-0.31441-0.09529-0.47868-0.09529s-0.32693 0.03238-0.47868 0.09529c-0.15174 0.0629-0.2896 0.1551-0.4057 0.27132l-9.8e-4 9.8e-4c-0.11622 0.1161-0.20842 0.25396-0.27132 0.4057-0.06291 0.15175-0.09529 0.31441-0.09529 0.47868s0.03238 0.32693 0.09529 0.47868c0.0629 0.15174 0.1551 0.2896 0.27132 0.40569l0.08524 0.08525c0.46282 0.47314 0.77324 1.0741 0.89132 1.7254 0.11573 0.63825 0.04146 1.2962-0.21314 1.8922-0.23195 0.6082-0.63809 1.1348-1.168 1.5139-0.54063 0.3866-1.1851 0.6017-1.8496 0.6173l-0.02923 3e-4h-0.1125c-0.33152 0-0.64946 0.1317-0.88388 0.3661s-0.36612 0.5524-0.36612 0.8839 0.1317 0.6495 0.36612 0.8839 0.55236 0.3661 0.88388 0.3661h0.21749c0.64601 0.0026 1.2772 0.194 1.8158 0.5507 0.53674 0.3555 0.95823 0.8596 1.213 1.4507 0.26508 0.6039 0.34387 1.2733 0.22618 1.9223-0.11808 0.6513-0.42855 1.2522-0.89137 1.7254l-0.00965 0.0098-0.07505 0.075c-0.11622 0.1161-0.20891 0.2544-0.27181 0.4062-0.06291 0.1517-0.09529 0.3144-0.09529 0.4787 0 0.1642 0.03238 0.3269 0.09529 0.4786 0.0629 0.1518 0.1551 0.2896 0.27132 0.4057l9.9e-4 1e-3c0.11608 0.1162 0.25394 0.2084 0.40569 0.2713s0.31441 0.0953 0.47868 0.0953 0.32693-0.0324 0.47868-0.0953 0.28961-0.1551 0.40569-0.2713l0.08525-0.0852c0.47314-0.4629 1.0741-0.7733 1.7254-0.8913 0.63825-0.1158 1.2962-0.0415 1.8922 0.2131 0.6082 0.2319 1.1348 0.6381 1.5139 1.168 0.3866 0.5406 0.6017 1.1851 0.6173 1.8496l3e-4 0.0292v0.1125c0 0.3315 0.1317 0.6495 0.3661 0.8839s0.5524 0.3661 0.8839 0.3661 0.6495-0.1317 0.8839-0.3661 0.3661-0.5524 0.3661-0.8839v-0.2175c0.0026-0.646 0.194-1.2772 0.5507-1.8158 0.3555-0.5368 0.8597-0.9583 1.4508-1.213 0.6039-0.2651 1.2732-0.3438 1.9222-0.2262 0.6513 0.1181 1.2522 0.4286 1.7254 0.8914l0.0098 0.0097 0.075 0.075c0.1161 0.1162 0.2544 0.2089 0.4062 0.2718 0.1517 0.0629 0.3144 0.0953 0.4787 0.0953 0.1642 0 0.3269-0.0324 0.4786-0.0953 0.1518-0.0629 0.2896-0.1551 0.4057-0.2713l1e-3 -1e-3c0.1162-0.1161 0.2084-0.2539 0.2713-0.4057 0.0629-0.1517 0.0953-0.3144 0.0953-0.4787 0-0.1642-0.0324-0.3269-0.0953-0.4786-0.0629-0.1518-0.1551-0.2896-0.2713-0.4057l-0.0852-0.0853c-0.4629-0.4731-0.7733-1.0741-0.8913-1.7254-0.1177-0.649-0.039-1.3183 0.2261-1.9222 0.2547-0.5911 0.6762-1.0953 1.213-1.4508 0.5386-0.3567 1.1698-0.5481 1.8158-0.5507h0.1175c0.3315 0 0.6495-0.1317 0.8839-0.3661s0.3661-0.5524 0.3661-0.8839-0.1317-0.6495-0.3661-0.8839-0.5524-0.3661-0.8839-0.3661h-0.2175c-0.646-0.0026-1.2772-0.194-1.8158-0.5507s-0.9611-0.8631-1.2156-1.4569c-0.0453-0.1057-0.0757-0.2169-0.0906-0.3304-0.1889-0.5395-0.2355-1.1203-0.133-1.6858 0.1181-0.65125 0.4286-1.2522 0.8914-1.7253l0.0097-0.00985 0.075-0.07495c0.1162-0.11609 0.2089-0.25445 0.2718-0.40619 0.0629-0.15175 0.0953-0.31441 0.0953-0.47868s-0.0324-0.32693-0.0953-0.47868c-0.0629-0.15174-0.1551-0.2896-0.2713-0.4057l-1e-3 -9.8e-4c-0.1161-0.11622-0.2539-0.20842-0.4057-0.27132-0.1517-0.06291-0.3144-0.09529-0.4787-0.09529-0.1642 0-0.3269 0.03238-0.4786 0.09529-0.1518 0.0629-0.2896 0.1551-0.4057 0.27132l-0.0853 0.08524c-0.4731 0.46282-1.0741 0.77324-1.7254 0.89132-0.649 0.11769-1.3184 0.0389-1.9223-0.22618-0.5911-0.25477-1.0952-0.67626-1.4507-1.213-0.3567-0.53861-0.5481-1.1698-0.5507-1.8158v-0.11749c0-0.33152-0.1317-0.64946-0.3661-0.88388s-0.5524-0.36612-0.8839-0.36612zm9.25 16.25 1.1436 0.5047c-0.0656 0.1485-0.0851 0.3133-0.0562 0.473 0.0287 0.158 0.1035 0.3039 0.2149 0.4194l0.0686 0.0685c2e-4 2e-4 -2e-4 -1e-4 0 0 0.3484 0.3482 0.6253 0.7621 0.814 1.2171 0.1887 0.4553 0.2858 0.9432 0.2858 1.436 0 0.4929-0.0971 0.9808-0.2858 1.4361-0.1888 0.4552-0.4653 0.8688-0.814 1.2171l-0.8834-0.8844 0.8844 0.8834c-0.3483 0.3487-0.7619 0.6252-1.2171 0.814-0.4553 0.1887-0.9432 0.2858-1.436 0.2858-0.4929 0-0.9808-0.0971-1.4361-0.2858-0.455-0.1887-0.8684-0.4651-1.2166-0.8135-1e-4 -2e-4 2e-4 1e-4 0 0l-0.069-0.0691c-0.1155-0.1114-0.2614-0.1862-0.4194-0.2149-0.1597-0.0289-0.3245-0.0094-0.473 0.0562l-0.0123 0.0054c-0.1456 0.0624-0.2698 0.166-0.3573 0.2981-0.0872 0.1316-0.1341 0.2857-0.1351 0.4435v0.2094c0 0.9946-0.3951 1.9484-1.0984 2.6517-0.7032 0.7032-1.657 1.0983-2.6516 1.0983s-1.9484-0.3951-2.6517-1.0983c-0.7032-0.7033-1.0983-1.6571-1.0983-2.6517v-0.0945c-0.0059-0.159-0.0584-0.3129-0.1511-0.4424-0.0948-0.1326-0.2274-0.2337-0.3804-0.2899-0.0247-0.0091-0.0491-0.019-0.0732-0.0296-0.1485-0.0656-0.3133-0.0851-0.473-0.0562-0.158 0.0287-0.30396 0.1035-0.41943 0.215l-0.06849 0.0685c-1.7e-4 2e-4 1.6e-4 -2e-4 0 0-0.34818 0.3484-0.76207 0.6253-1.2171 0.814-0.45525 0.1887-0.94322 0.2858-1.436 0.2858s-0.98078-0.0971-1.436-0.2858c-0.45481-0.1886-0.86804-0.4648-1.2161-0.813-0.34866-0.3483-0.62526-0.7619-0.81398-1.2171-0.18871-0.4553-0.28585-0.9432-0.28585-1.436 0-0.4929 0.09714-0.9808 0.28585-1.4361 0.18872-0.4552 0.46532-0.8688 0.81398-1.2171l0.06853-0.0685c0.11147-0.1155 0.18627-0.2614 0.21492-0.4194 0.02896-0.1597 0.00941-0.3245-0.05614-0.473l-0.00541-0.0123c-0.06242-0.1456-0.166-0.2698-0.29812-0.3573-0.13159-0.0872-0.28571-0.1341-0.44352-0.1351h-0.20937c-0.99456 0-1.9484-0.3951-2.6516-1.0984-0.70326-0.7032-1.0984-1.657-1.0984-2.6516s0.39509-1.9484 1.0984-2.6517c0.70326-0.7032 1.6571-1.0983 2.6516-1.0983h0.09455c0.15899-0.0059 0.31284-0.0584 0.44239-0.1511 0.13261-0.0948 0.23361-0.2274 0.28989-0.3804 0.00909-0.0247 0.01896-0.0491 0.02959-0.0732 0.06555-0.1485 0.0851-0.3133 0.05614-0.473-0.02865-0.158-0.10346-0.30395-0.21494-0.41941l-0.06851-0.06851c-0.34866-0.34828-0.62526-0.76186-0.81398-1.2171-0.18871-0.45525-0.28585-0.94322-0.28585-1.436s0.09714-0.98078 0.28585-1.436c0.18863-0.45502 0.46506-0.86843 0.81349-1.2166 0.34817-0.34843 0.76158-0.62486 1.2166-0.81349 0.45525-0.18871 0.94322-0.28585 1.436-0.28585s0.98078 0.09714 1.436 0.28585c0.45524 0.18872 0.86882 0.46532 1.2171 0.81398l0.06852 0.06851c0.11546 0.11148 0.26141 0.18629 0.41941 0.21494 0.1597 0.02896 0.3245 0.00941 0.473-0.05614 0.08-0.03533 0.1634-0.06206 0.2485-0.07989 0.0872-0.05916 0.1624-0.13499 0.2211-0.22364 0.0872-0.13159 0.1341-0.28571 0.1351-0.44352v-0.20937c0-0.99456 0.3951-1.9484 1.0984-2.6516 0.7032-0.70326 1.657-1.0984 2.6516-1.0984s1.9484 0.39509 2.6516 1.0984c0.7033 0.70326 1.0984 1.6571 1.0984 2.6516v0.10937c1e-3 0.15781 0.0479 0.31193 0.1351 0.44353 0.0875 0.13211 0.2117 0.23575 0.3573 0.29818l0.0123 0.00528c0.1486 0.06555 0.3133 0.08516 0.473 0.0562 0.158-0.02865 0.3039-0.10345 0.4194-0.21492l0.0685-0.06853c0.3483-0.34866 0.7619-0.62526 1.2171-0.81398 0.4553-0.18871 0.9432-0.28585 1.436-0.28585 0.4929 0 0.9808 0.09714 1.4361 0.28585 0.4552 0.18872 0.8688 0.46532 1.2171 0.81398 0.3482 0.34807 0.6244 0.7613 0.813 1.2161 0.1887 0.45525 0.2858 0.94322 0.2858 1.436s-0.0971 0.98079-0.2858 1.436c-0.1887 0.45503-0.4651 0.86843-0.8135 1.2166-2e-4 1.7e-4 1e-4 -1.7e-4 0 0l-0.069 0.06901c-0.1115 0.11546-0.1863 0.26141-0.215 0.41941-0.0289 0.1597-0.0094 0.3245 0.0562 0.473 0.0353 0.08 0.062 0.1634 0.0799 0.2485 0.0591 0.0872 0.135 0.1624 0.2236 0.2211 0.1316 0.0872 0.2857 0.1341 0.4435 0.1351h0.2094c0.9946 0 1.9484 0.3951 2.6517 1.0984 0.7032 0.7032 1.0983 1.657 1.0983 2.6516s-0.3951 1.9484-1.0983 2.6516c-0.7033 0.7033-1.6571 1.0984-2.6517 1.0984h-0.1094c-0.1578 1e-3 -0.3119 0.0479-0.4435 0.1351-0.1321 0.0875-0.2358 0.2117-0.2982 0.3573z"/>
  </g>
 </g>
</svg>

<svg width="30" height="30" viewBox="0 0 30 30" fill="none" xmlns="http://www.w3.org/2000/svg">
<path fill-rule="evenodd" clip-rule="evenodd" d="M15 12.5C13.6193 12.5 12.5 13.6193 12.5 15C12.5 16.3807 13.6193 17.5 15 17.5C16.3807 17.5 17.5 16.3807 17.5 15C17.5 13.6193 16.3807 12.5 15 12.5ZM10 15C10 12.2386 12.2386 10 15 10C17.7614 10 20 12.2386 20 15C20 17.7614 17.7614 20 15 20C12.2386 20 10 17.7614 10 15Z" fill="#0047AD"/>
<path fill-rule="evenodd" clip-rule="evenodd" d="M15 2.5C14.6685 2.5 14.3505 2.6317 14.1161 2.86612C13.8817 3.10054 13.75 3.41848 13.75 3.75V3.96749C13.7474 4.6135 13.556 5.24466 13.1993 5.78327C12.8426 6.32188 12.3362 6.74444 11.7424 6.99892C11.6367 7.04422 11.5255 7.07462 11.412 7.08946C10.8725 7.2784 10.2917 7.32497 9.72625 7.22245C9.075 7.10437 8.47406 6.7939 8.00092 6.33108L7.99106 6.32144L7.91612 6.24638C7.80003 6.13016 7.66167 6.03747 7.50993 5.97457C7.35818 5.91166 7.19552 5.87928 7.03125 5.87928C6.86698 5.87928 6.70432 5.91166 6.55257 5.97457C6.40083 6.03747 6.26297 6.12967 6.14687 6.24589L6.14589 6.24687C6.02967 6.36297 5.93747 6.50083 5.87457 6.65257C5.81166 6.80432 5.77928 6.96698 5.77928 7.13125C5.77928 7.29552 5.81166 7.45818 5.87457 7.60993C5.93747 7.76167 6.02967 7.89953 6.14589 8.01562L6.23113 8.10087C6.69395 8.57401 7.00437 9.175 7.12245 9.82625C7.23818 10.4645 7.16391 11.1225 6.90931 11.7185C6.67736 12.3267 6.27122 12.8533 5.74131 13.2324C5.20068 13.619 4.55623 13.8341 3.89173 13.8497L3.8625 13.85H3.75C3.41848 13.85 3.10054 13.9817 2.86612 14.2161C2.6317 14.4505 2.5 14.7685 2.5 15.1C2.5 15.4315 2.6317 15.7495 2.86612 15.9839C3.10054 16.2183 3.41848 16.35 3.75 16.35H3.96749C4.6135 16.3526 5.24466 16.544 5.78327 16.9007C6.32001 17.2562 6.7415 17.7603 6.99627 18.3514C7.26135 18.9553 7.34014 19.6247 7.22245 20.2737C7.10437 20.925 6.7939 21.5259 6.33108 21.9991L6.32143 22.0089L6.24638 22.0839C6.13016 22.2 6.03747 22.3383 5.97457 22.4901C5.91166 22.6418 5.87928 22.8045 5.87928 22.9688C5.87928 23.133 5.91166 23.2957 5.97457 23.4474C6.03747 23.5992 6.12967 23.737 6.24589 23.8531L6.24688 23.8541C6.36296 23.9703 6.50082 24.0625 6.65257 24.1254C6.80432 24.1883 6.96698 24.2207 7.13125 24.2207C7.29552 24.2207 7.45818 24.1883 7.60993 24.1254C7.76168 24.0625 7.89954 23.9703 8.01562 23.8541L8.10087 23.7689C8.57401 23.306 9.17501 22.9956 9.82625 22.8776C10.4645 22.7618 11.1224 22.8361 11.7185 23.0907C12.3267 23.3226 12.8533 23.7288 13.2324 24.2587C13.619 24.7993 13.8341 25.4438 13.8497 26.1083L13.85 26.1375V26.25C13.85 26.5815 13.9817 26.8995 14.2161 27.1339C14.4505 27.3683 14.7685 27.5 15.1 27.5C15.4315 27.5 15.7495 27.3683 15.9839 27.1339C16.2183 26.8995 16.35 26.5815 16.35 26.25V26.0375L16.35 26.0325C16.3526 25.3865 16.544 24.7553 16.9007 24.2167C17.2562 23.6799 17.7604 23.2584 18.3515 23.0037C18.9554 22.7386 19.6247 22.6599 20.2737 22.7775C20.925 22.8956 21.5259 23.2061 21.9991 23.6689L22.0089 23.6786L22.0839 23.7536C22.2 23.8698 22.3383 23.9625 22.4901 24.0254C22.6418 24.0883 22.8045 24.1207 22.9688 24.1207C23.133 24.1207 23.2957 24.0883 23.4474 24.0254C23.5992 23.9625 23.737 23.8703 23.8531 23.7541L23.8541 23.7531C23.9703 23.637 24.0625 23.4992 24.1254 23.3474C24.1883 23.1957 24.2207 23.033 24.2207 22.8687C24.2207 22.7045 24.1883 22.5418 24.1254 22.3901C24.0625 22.2383 23.9703 22.1005 23.8541 21.9844L23.7689 21.8991C23.306 21.426 22.9956 20.825 22.8776 20.1737C22.7599 19.5247 22.8386 18.8554 23.1037 18.2515C23.3584 17.6604 23.7799 17.1562 24.3167 16.8007C24.8553 16.444 25.4865 16.2526 26.1325 16.25L26.1375 16.25L26.25 16.25C26.5815 16.25 26.8995 16.1183 27.1339 15.8839C27.3683 15.6495 27.5 15.3315 27.5 15C27.5 14.6685 27.3683 14.3505 27.1339 14.1161C26.8995 13.8817 26.5815 13.75 26.25 13.75H26.0375L26.0325 13.75C25.3865 13.7474 24.7553 13.556 24.2167 13.1993C23.6781 12.8426 23.2556 12.3362 23.0011 11.7424C22.9558 11.6367 22.9254 11.5255 22.9105 11.412C22.7216 10.8725 22.675 10.2917 22.7775 9.72625C22.8956 9.075 23.2061 8.47406 23.6689 8.00092L23.6786 7.99107L23.7536 7.91612C23.8698 7.80003 23.9625 7.66167 24.0254 7.50993C24.0883 7.35818 24.1207 7.19552 24.1207 7.03125C24.1207 6.86698 24.0883 6.70432 24.0254 6.55257C23.9625 6.40083 23.8703 6.26297 23.7541 6.14687L23.7531 6.14589C23.637 6.02967 23.4992 5.93747 23.3474 5.87457C23.1957 5.81166 23.033 5.77928 22.8687 5.77928C22.7045 5.77928 22.5418 5.81166 22.3901 5.87457C22.2383 5.93747 22.1005 6.02967 21.9844 6.14589L21.8991 6.23113C21.426 6.69395 20.825 7.00437 20.1737 7.12245C19.5247 7.24014 18.8553 7.16135 18.2514 6.89627C17.6603 6.6415 17.1562 6.22001 16.8007 5.68327C16.444 5.14466 16.2526 4.5135 16.25 3.86749L16.25 3.8625V3.75C16.25 3.41848 16.1183 3.10054 15.8839 2.86612C15.6495 2.6317 15.3315 2.5 15 2.5ZM24.25 18.75L25.3936 19.2547C25.328 19.4032 25.3085 19.568 25.3374 19.7277C25.3661 19.8857 25.4409 20.0316 25.5523 20.1471L25.6209 20.2156C25.6211 20.2158 25.6207 20.2155 25.6209 20.2156C25.9693 20.5638 26.2462 20.9777 26.4349 21.4327C26.6236 21.888 26.7207 22.3759 26.7207 22.8687C26.7207 23.3616 26.6236 23.8495 26.4349 24.3048C26.2461 24.76 25.9696 25.1736 25.6209 25.5219L24.7375 24.6375L25.6219 25.5209C25.2736 25.8696 24.86 26.1461 24.4048 26.3349C23.9495 26.5236 23.4616 26.6207 22.9688 26.6207C22.4759 26.6207 21.988 26.5236 21.5327 26.3349C21.0777 26.1462 20.6643 25.8698 20.3161 25.5214C20.316 25.5212 20.3163 25.5215 20.3161 25.5214L20.2471 25.4523C20.1316 25.3409 19.9857 25.2661 19.8277 25.2374C19.668 25.2085 19.5032 25.228 19.3547 25.2936L19.3424 25.299C19.1968 25.3614 19.0726 25.465 18.9851 25.5971C18.8979 25.7287 18.851 25.8828 18.85 26.0406V26.25C18.85 27.2446 18.4549 28.1984 17.7516 28.9017C17.0484 29.6049 16.0946 30 15.1 30C14.1054 30 13.1516 29.6049 12.4483 28.9017C11.7451 28.1984 11.35 27.2446 11.35 26.25V26.1555C11.3441 25.9965 11.2916 25.8426 11.1989 25.7131C11.1041 25.5805 10.9715 25.4794 10.8185 25.4232C10.7938 25.4141 10.7694 25.4042 10.7453 25.3936C10.5968 25.328 10.432 25.3085 10.2723 25.3374C10.1143 25.3661 9.96834 25.4409 9.85287 25.5524L9.78438 25.6209C9.78421 25.6211 9.78454 25.6207 9.78438 25.6209C9.4362 25.9693 9.02231 26.2462 8.56728 26.4349C8.11203 26.6236 7.62406 26.7207 7.13125 26.7207C6.63844 26.7207 6.15047 26.6236 5.69522 26.4349C5.24041 26.2463 4.82718 25.9701 4.47911 25.6219C4.13045 25.2736 3.85385 24.86 3.66513 24.4048C3.47642 23.9495 3.37928 23.4616 3.37928 22.9688C3.37928 22.4759 3.47642 21.988 3.66513 21.5327C3.85385 21.0775 4.13045 20.6639 4.47911 20.3156L4.54764 20.2471C4.65911 20.1316 4.73391 19.9857 4.76256 19.8277C4.79152 19.668 4.77197 19.5032 4.70642 19.3547L4.70101 19.3424C4.63859 19.1968 4.53501 19.0726 4.40289 18.9851C4.2713 18.8979 4.11718 18.851 3.95937 18.85H3.75C2.75544 18.85 1.80161 18.4549 1.09835 17.7516C0.395088 17.0484 0 16.0946 0 15.1C0 14.1054 0.395088 13.1516 1.09835 12.4483C1.80161 11.7451 2.75544 11.35 3.75 11.35H3.84455C4.00354 11.3441 4.15739 11.2916 4.28694 11.1989C4.41955 11.1041 4.52055 10.9715 4.57683 10.8185C4.58592 10.7938 4.59579 10.7694 4.60642 10.7453C4.67197 10.5968 4.69152 10.432 4.66256 10.2723C4.63391 10.1143 4.5591 9.96835 4.44762 9.85289L4.37911 9.78438C4.03045 9.4361 3.75385 9.02252 3.56513 8.56728C3.37642 8.11203 3.27928 7.62406 3.27928 7.13125C3.27928 6.63844 3.37642 6.15047 3.56513 5.69522C3.75376 5.2402 4.03019 4.82679 4.37862 4.47862C4.72679 4.13019 5.1402 3.85376 5.59522 3.66513C6.05047 3.47642 6.53844 3.37928 7.03125 3.37928C7.52406 3.37928 8.01203 3.47642 8.46728 3.66513C8.92252 3.85385 9.3361 4.13045 9.68437 4.47911L9.75289 4.54762C9.86835 4.6591 10.0143 4.73391 10.1723 4.76256C10.332 4.79152 10.4968 4.77197 10.6453 4.70642C10.7253 4.67109 10.8087 4.64436 10.8938 4.62653C10.981 4.56737 11.0562 4.49154 11.1149 4.40289C11.2021 4.2713 11.249 4.11718 11.25 3.95937V3.75C11.25 2.75544 11.6451 1.80161 12.3484 1.09835C13.0516 0.395088 14.0054 0 15 0C15.9946 0 16.9484 0.395088 17.6516 1.09835C18.3549 1.80161 18.75 2.75544 18.75 3.75V3.85937C18.751 4.01718 18.7979 4.1713 18.8851 4.3029C18.9726 4.43501 19.0968 4.53865 19.2424 4.60108L19.2547 4.60636C19.4033 4.67191 19.568 4.69152 19.7277 4.66256C19.8857 4.63391 20.0316 4.55911 20.1471 4.44764L20.2156 4.37911C20.5639 4.03045 20.9775 3.75385 21.4327 3.56513C21.888 3.37642 22.3759 3.27928 22.8687 3.27928C23.3616 3.27928 23.8495 3.37642 24.3048 3.56513C24.76 3.75385 25.1736 4.03045 25.5219 4.37911C25.8701 4.72718 26.1463 5.14041 26.3349 5.59522C26.5236 6.05047 26.6207 6.53844 26.6207 7.03125C26.6207 7.52406 26.5236 8.01204 26.3349 8.46728C26.1462 8.92231 25.8698 9.33571 25.5214 9.68388C25.5212 9.68405 25.5215 9.68371 25.5214 9.68388L25.4524 9.75289C25.3409 9.86835 25.2661 10.0143 25.2374 10.1723C25.2085 10.332 25.228 10.4968 25.2936 10.6453C25.3289 10.7253 25.3556 10.8087 25.3735 10.8938C25.4326 10.981 25.5085 11.0562 25.5971 11.1149C25.7287 11.2021 25.8828 11.249 26.0406 11.25H26.25C27.2446 11.25 28.1984 11.6451 28.9017 12.3484C29.6049 13.0516 30 14.0054 30 15C30 15.9946 29.6049 16.9484 28.9017 17.6516C28.1984 18.3549 27.2446 18.75 26.25 18.75H26.1406C25.9828 18.751 25.8287 18.7979 25.6971 18.8851C25.565 18.9726 25.4613 19.0968 25.3989 19.2424L24.25 18.75Z" fill="#0047AD"/>
</svg>
